swiss/communes/0054.svg

<?xml version="1.0" encoding="UTF-8" standalone="no"?>
<!-- Created with Inkscape (http://www.inkscape.org/) -->
<svg
   xmlns:svg="http://www.w3.org/2000/svg"
   xmlns="http://www.w3.org/2000/svg"
   version="1.0"
   width="218.64684"
   height="256.11078"
   id="svg2780">
  <defs
     id="defs2782" />
  <g
     transform="translate(-13.866677,-810.77783)"
     id="layer1">
    <path
       d="M 14.866677,811.77783 L 18.805706,977.24528 C 21.619291,1095.4364 224.76089,1095.4364 227.57448,977.24528 L 231.51351,811.77783 L 14.866677,811.77783 z"
       id="path3282"
       style="fill:#3173ce;fill-opacity:1;fill-rule:evenodd;stroke:#000000;stroke-width:2;stroke-linecap:butt;stroke-miterlimit:4;stroke-dashoffset:0;stroke-opacity:1" />
    <path
       d="M 122.02251,214.19757 L 103.25595,156.52038 L 43.922758,169.10666 L 84.489388,124.01575 L 43.922755,78.924837 L 103.25595,91.511112 L 122.0225,33.833923 L 140.78907,91.511112 L 200.12226,78.924833 L 159.55563,124.01575 L 200.12226,169.10666 L 140.78907,156.52038 L 122.02251,214.19757 z"
       transform="matrix(1.0181882,0,0,1.0181688,-1.051783,803.01064)"
       id="path4864"
       style="fill:#ffe731;fill-opacity:1;fill-rule:evenodd;stroke:#000000;stroke-width:0.98214617pt;stroke-linecap:butt;stroke-linejoin:miter;stroke-opacity:1" />
  </g>
</svg>

<svg xmlns="http://www.w3.org/2000/svg" version="1.0" width="218.647" height="256.111"><path d="m14.867 811.778 3.939 165.467c2.813 118.191 205.955 118.191 208.768 0l3.94-165.467H14.867z" style="fill:#3173ce;fill-opacity:1;fill-rule:evenodd;stroke:#000;stroke-width:2;stroke-linecap:butt;stroke-miterlimit:4;stroke-dashoffset:0;stroke-opacity:1" transform="translate(-13.867 -810.778)"/><path d="m122.023 214.198-18.767-57.678-59.333 12.587 40.566-45.091-40.566-45.091 59.333 12.586 18.766-57.677L140.79 91.51l59.333-12.586-40.566 45.09 40.566 45.092-59.333-12.587-18.766 57.678z" transform="matrix(1.01819 0 0 1.01817 -14.918 -7.767)" style="fill:#ffe731;fill-opacity:1;fill-rule:evenodd;stroke:#000;stroke-width:.98214617pt;stroke-linecap:butt;stroke-linejoin:miter;stroke-opacity:1"/></svg>
